modules/hawcons-filled/icons/file-rb.svg

<?xml version="1.0" encoding="UTF-8" standalone="no"?>
<svg width="32px" height="32px" viewBox="0 0 32 32" version="1.1" xmlns="http://www.w3.org/2000/svg" xmlns:xlink="http://www.w3.org/1999/xlink" xmlns:sketch="http://www.bohemiancoding.com/sketch/ns">
    <!-- Generator: Sketch 3.0.3 (7891) - http://www.bohemiancoding.com/sketch -->
    <title>icon 25 file rb</title>
    <desc>Created with Sketch.</desc>
    <defs></defs>
    <g id="Page-1" stroke="none" stroke-width="1" fill="none" fill-rule="evenodd" sketch:type="MSPage">
        <g id="icon-25-file-rb" sketch:type="MSArtboardGroup" fill="#929292">
            <path d="M8.00684834,10 C6.34621185,10 5,11.3422643 5,12.9987856 L5,20.0012144 C5,21.6573979 6.33599155,23 8.00684834,23 L24.9931517,23 C26.6537881,23 28,21.6577357 28,20.0012144 L28,12.9987856 C28,11.3426021 26.6640085,10 24.9931517,10 L8.00684834,10 L8.00684834,10 Z M12.7999878,17 L12,17 L12,20 L11,20 L11,15 L11,13 L13.9951185,13 C15.1061002,13 16,13.8954305 16,15 C16,16.1106358 15.1050202,16.9973904 13.9999986,16.9999943 L16,20 L14.7999878,20 L12.7999878,17 L12.7999878,17 Z M12,14 L12,16 L14.0010434,16 C14.5527519,16 15,15.5561352 15,15 C15,14.4477153 14.5573397,14 14.0010434,14 L12,14 L12,14 Z M17,16.75 L17,13 L19.9951185,13 C21.1061002,13 22,13.8954305 22,15 C22,15.6003203 21.7385216,16.1352311 21.3237293,16.5004635 C21.7385553,16.8669242 22,17.4029055 22,18 C22,19.1122704 21.102384,20 19.9951185,20 L17,20 L17,16.75 L17,16.75 Z M18,14 L18,16 L20.0010434,16 C20.5527519,16 21,15.5561352 21,15 C21,14.4477153 20.5573397,14 20.0010434,14 L18,14 L18,14 Z M18,17 L18,19 L20.0010434,19 C20.5527519,19 21,18.5561352 21,18 C21,17.4477153 20.5573397,17 20.0010434,17 L18,17 L18,17 Z" id="file-rb" sketch:type="MSShapeGroup"></path>
        </g>
    </g>
</svg>

<svg width="32" height="32" viewBox="0 0 32 32" xmlns="http://www.w3.org/2000/svg"><path d="M8.007 10A3.003 3.003 0 0 0 5 12.999V20A2.996 2.996 0 0 0 8.007 23h16.986A3.003 3.003 0 0 0 28 20.001V13A2.996 2.996 0 0 0 24.993 10H8.007zm4.793 7H12v3h-1v-7h2.995A2 2 0 1 1 14 17l2 3h-1.2l-2-3zm-.8-3v2h2.001A.997.997 0 0 0 15 15c0-.552-.443-1-.999-1H12zm5 2.75V13h2.995a2 2 0 0 1 1.329 3.5c.415.367.676.903.676 1.5 0 1.112-.898 2-2.005 2H17v-3.25zM18 14v2h2.001A.997.997 0 0 0 21 15c0-.552-.443-1-.999-1H18zm0 3v2h2.001A.997.997 0 0 0 21 18c0-.552-.443-1-.999-1H18z" fill="#929292" fill-rule="evenodd"/></svg>
